assets/logos/icons/anchor.svg

<svg height="24" viewBox="0 0 24 24" width="24" xmlns="http://www.w3.org/2000/svg"><path d="m12 4c.552 0 1 .448 1 1s-.448 1-1 1-1-.448-1-1 .448-1 1-1zm5 8v2h1c0 2.967-2.167 5.432-5 5.91v-8.91h2v-2h-2v-1.185c1.161-.414 2-1.513 2-2.815 0-1.654-1.346-3-3-3s-3 1.346-3 3c0 1.302.839 2.401 2 2.815v1.185h-2v2h2v8.91c-2.833-.478-5-2.943-5-5.91h1v-2h-5v2h2c0 4.411 3.589 8 8 8s8-3.589 8-8h2v-2z" fill="#492f5c" fill-rule="evenodd"/></svg>

<svg xmlns="http://www.w3.org/2000/svg" width="24" height="24" viewBox="0 0 24 24">
  <path fill="#492F5C" fill-rule="evenodd" d="M12,4 C12.552,4 13,4.448 13,5 C13,5.552 12.552,6 12,6 C11.448,6 11,5.552 11,5 C11,4.448 11.448,4 12,4 L12,4 Z M17,12 L17,14 L18,14 C18,16.967 15.833,19.432 13,19.91 L13,11 L15,11 L15,9 L13,9 L13,7.815 C14.161,7.401 15,6.302 15,5 C15,3.346 13.654,2 12,2 C10.346,2 9,3.346 9,5 C9,6.302 9.839,7.401 11,7.815 L11,9 L9,9 L9,11 L11,11 L11,19.91 C8.167,19.432 6,16.967 6,14 L7,14 L7,12 L2,12 L2,14 L4,14 C4,18.411 7.589,22 12,22 C16.411,22 20,18.411 20,14 L22,14 L22,12 L17,12 Z"/>
</svg>
